X:1
T:Maryland, LMD
T:Maryland, LMD
T:Alexander Zarnock
T:Public Domain Courtesy of the Cyber Hymnal™
C:Alexander Zarnock
Z:Public Domain
Z:Courtesy of the Cyber Hymnal™
%%score ( 1 2 ) 3
L:1/8
Q:1/4=95
M:3/4
K:G
V:1 treble 
V:2 treble 
V:3 bass 
V:1
|: D2 | [DG]>[DG] [DG]2 [FA]2 | [GB]>[GB] [GB]3 [GB] | [FA]>[GB] [Ac]2 [DF]2 | [DA]>[DG] [DG]2 :| %5
 z [Gd] | [Gd]>[GB] [^Ge]3 [Gd] | [Bd]>[Ac] [Ac]3 [Ac] | [Ac]>A [Fd]3 [Fc] | [Ac]>[GB] [GB]2 D2 | %10
 [DG]>[DG] [DG]2 [FA]2 | [GB]>[GB] [GB]3 [GB] | [EA]>[EB] [Ec]2 [DF]2 | [DA]>[DG] [DG]2 |] %14
V:2
|: D2 | x6 | x6 | x6 | x4 :| x2 | x6 | x6 | x6 | x4 D2 | x6 | x6 | x6 | x4 |] %14
V:3
|: [G,B,]2 | [G,B,]>[G,B,] [G,B,]2 [D,D]2 | [G,D]>[G,D] [G,D]3 [G,D] | [D,D]>[D,D] [D,D]2 [D,A,]2 | %4
 [G,C]>[G,B,] [G,B,]2 :| z [G,B,] | [G,B,]>[G,B,] [E,B,]3 [E,E] | [A,E]>[A,E] [A,E]3 [G,E] | %8
 [F,D]>[F,D] [D,D]3 [D,D] | [G,D]>[G,D] [G,D]2 [G,B,]2 | [G,B,]>[G,B,] [G,B,]2 [D,D]2 | %11
 [G,D]>[G,D] [G,D]3 [G,D] | [C,A,]>[B,,^G,] [A,,A,]2 [D,A,]2 | [G,C]>[G,B,] [G,B,]2 |] %14

